icons/outline/library-photo.svg

<svg xmlns="http://www.w3.org/2000/svg" width="24" height="24" viewBox="0 0 24 24" fill="none" stroke="currentColor" stroke-width="2" stroke-linecap="round" stroke-linejoin="round"><path d="M7 3m0 2.667a2.667 2.667 0 0 1 2.667 -2.667h8.666a2.667 2.667 0 0 1 2.667 2.667v8.666a2.667 2.667 0 0 1 -2.667 2.667h-8.666a2.667 2.667 0 0 1 -2.667 -2.667z"/><path d="M4.012 7.26a2.005 2.005 0 0 0 -1.012 1.737v10c0 1.1 .9 2 2 2h10c.75 0 1.158 -.385 1.5 -1"/><path d="M17 7h.01"/><path d="M7 13l3.644 -3.644a1.21 1.21 0 0 1 1.712 0l3.644 3.644"/><path d="M15 12l1.644 -1.644a1.21 1.21 0 0 1 1.712 0l2.644 2.644"/></svg>

<svg xmlns="http://www.w3.org/2000/svg" width="24" height="24" fill="none" stroke="currentColor" stroke-linecap="round" stroke-linejoin="round" stroke-width="2"><path d="M7 5.667A2.667 2.667 0 0 1 9.667 3h8.666A2.667 2.667 0 0 1 21 5.667v8.666A2.667 2.667 0 0 1 18.333 17H9.667A2.667 2.667 0 0 1 7 14.333z"/><path d="M4.012 7.26A2 2 0 0 0 3 8.997v10c0 1.1.9 2 2 2h10c.75 0 1.158-.385 1.5-1M17 7h.01"/><path d="m7 13 3.644-3.644a1.21 1.21 0 0 1 1.712 0L16 13"/><path d="m15 12 1.644-1.644a1.21 1.21 0 0 1 1.712 0L21 13"/></svg>
